src/img/src/sprite/icon-like-stroke.svg

<svg width="20" height="18" viewBox="0 0 20 18" fill="none" xmlns="http://www.w3.org/2000/svg">
<path d="M18.1766 1.90686C17.1163 0.828351 15.7108 0.17009 14.2139 0.0509847C12.7171 -0.0681212 11.2276 0.359781 10.0145 1.2574C8.74187 0.297038 7.15781 -0.138434 5.58133 0.0386726C4.00486 0.21578 2.55308 0.992311 1.51835 2.21189C0.483624 3.43147 -0.0571979 5.00351 0.00479662 6.61143C0.0667912 8.21936 0.726997 9.74374 1.85246 10.8776L8.06404 17.1896C8.58419 17.7089 9.28474 18 10.0145 18C10.7443 18 11.4449 17.7089 11.965 17.1896L18.1766 10.8776C19.3445 9.68549 20 8.07299 20 6.39223C20 4.71146 19.3445 3.09897 18.1766 1.90686ZM16.7663 9.47718L10.5547 15.779C10.484 15.8514 10.3999 15.9089 10.3072 15.9481C10.2144 15.9874 10.115 16.0076 10.0145 16.0076C9.91409 16.0076 9.81464 15.9874 9.72192 15.9481C9.62921 15.9089 9.54509 15.8514 9.4744 15.779L3.26282 9.44674C2.47838 8.63323 2.03912 7.54043 2.03912 6.40237C2.03912 5.26432 2.47838 4.17152 3.26282 3.35801C4.06218 2.55733 5.14027 2.10837 6.26359 2.10837C7.3869 2.10837 8.46499 2.55733 9.26435 3.35801C9.35734 3.45312 9.46797 3.52862 9.58986 3.58014C9.71175 3.63166 9.84248 3.65818 9.97453 3.65818C10.1066 3.65818 10.2373 3.63166 10.3592 3.58014C10.4811 3.52862 10.5917 3.45312 10.6847 3.35801C11.4841 2.55733 12.5622 2.10837 13.6855 2.10837C14.8088 2.10837 15.8869 2.55733 16.6862 3.35801C17.4815 4.16086 17.9351 5.24774 17.9501 6.38582C17.9651 7.5239 17.5401 8.62267 16.7663 9.44674V9.47718Z" fill="currentColor"/>
</svg>

<?xml version="1.0" encoding="utf-8"?>
<!-- Generator: Adobe Illustrator 23.1.0, SVG Export Plug-In . SVG Version: 6.00 Build 0)  -->
<svg version="1.1" id="Layer_1" xmlns="http://www.w3.org/2000/svg" xmlns:xlink="http://www.w3.org/1999/xlink" x="0px" y="0px"
	 viewBox="0 0 20 18" style="enable-background:new 0 0 20 18;" xml:space="preserve">
<path d="M18.2,1.9c-1.1-1.1-2.5-1.7-4-1.9c-1.5-0.1-3,0.3-4.2,1.2C8.7,0.3,7.2-0.1,5.6,0C4,0.2,2.6,1,1.5,2.2C0.5,3.4-0.1,5,0,6.6
	c0.1,1.6,0.7,3.1,1.8,4.3l6.2,6.3c0.5,0.5,1.2,0.8,2,0.8c0.7,0,1.4-0.3,2-0.8l6.2-6.3C19.3,9.7,20,8.1,20,6.4
	C20,4.7,19.3,3.1,18.2,1.9z M16.8,9.5l-6.2,6.3c-0.1,0.1-0.2,0.1-0.2,0.2C10.2,16,10.1,16,10,16c-0.1,0-0.2,0-0.3-0.1
	c-0.1,0-0.2-0.1-0.2-0.2L3.3,9.4C2.5,8.6,2,7.5,2,6.4c0-1.1,0.4-2.2,1.2-3c0.8-0.8,1.9-1.2,3-1.2c1.1,0,2.2,0.4,3,1.2
	c0.1,0.1,0.2,0.2,0.3,0.2C9.7,3.6,9.8,3.7,10,3.7c0.1,0,0.3,0,0.4-0.1c0.1-0.1,0.2-0.1,0.3-0.2c0.8-0.8,1.9-1.2,3-1.2s2.2,0.4,3,1.2
	c0.8,0.8,1.2,1.9,1.3,3S17.5,8.6,16.8,9.5L16.8,9.5z" fill="currentColor"/>
</svg>
